StripePaymentsUI/StripePaymentsUI/Resources/StripePaymentsUI.xcassets/Cards/stp_card_discover.imageset/icon-card-discover.svg

<svg fill="none" height="17" viewBox="0 0 26 17" width="26" xmlns="http://www.w3.org/2000/svg"><path d="m22.2099 16.9999h-20.42198c-.46978.004-.92169-.1844-1.256572-.5231-.336538-.3404-.52743184-.8045-.53133951-1.2877l-.00000849-12.37609c.00391616-.48534.19481-.9494.531348-1.28979.334882-.33873.786782-.527137 1.258712-.52315l20.42204-.00001c.4698-.003977.9217.18443 1.2565.52316.3366.34039.5275.80445.5314 1.28769v12.38369c-.0061.5039-.2093.9579-.5339 1.2849-.323.3253-.7663.5246-1.2562.5204z" fill="#fff"/><path d="m22.2121 16.7499h-.0022-20.42198-.00212c-.40105.0034-.788418-.1573-1.076671-.4489-.289822-.2931-.455483-.6942-.459121-1.113-.000002-.0003-.000005-.0006-.000008-.0009v-12.37304c.003647-.42105.16941-.82204.459129-1.11508.288137-.29144.675461-.45233 1.078811-.44892v.00001h.00212 20.42204l.0021-.00002c.401-.00339.7884.15737 1.0767.44893.2898.29316.4555.69422.4591 1.11304v.00091 12.38017c-.0057.4369-.1818.8287-.4613 1.1102-.2783.2803-.6578.4502-1.0766.4466z" stroke="#000" stroke-opacity=".2" stroke-width=".5"/><path d="m12.6124 16.9999h9.3849c.5027.0001 1.0027-.0499 1.4527-.4999.5-.5.55-1 .55-1.4697 0-.4698 0-2.3587 0-2.3587-3.5438 2.0343-7.3872 3.4952-11.3876 4.3283z" fill="#f27712" opacity=".5"/><path d="m23.1724 10.2965h-.8524l-.96-1.26621h-.091v1.26621h-.6952v-3.14483h1.0262c.8027 0 1.2662.33103 1.2662.92689 0 .48828-.2897.80276-.811.90207zm-1.0262-2.19311c0-.30621-.2317-.46345-.6621-.46345h-.2151v.95173h.1986c.4469 0 .6786-.16552.6786-.48828zm-4.0055-.95172h1.9696v.52965h-1.2745v.70345h1.2249v.53793h-1.2249v.85242h1.2745v.52968h-1.9696zm-2.2345 3.22763-1.5062-3.23591h.7614l.9517 2.11862.96-2.11862h.7448l-1.5227 3.23591h-.3725zm-6.29794-.0083c-1.05931 0-1.88689-.72002-1.88689-1.65519 0-.91035.84414-1.6469 1.90345-1.6469.29793 0 .54618.05793.85238.19034v.72828c-.2319-.22782-.54386-.35559-.86894-.35586-.66206 0-1.16689.48-1.16689 1.08414 0 .63724.49655 1.09241 1.2 1.09241.31448 0 .55453-.09931.83583-.34759v.72827c-.3145.1324-.57928.1821-.86894.1821zm-2.10206-1.03451c0 .61242-.50483 1.03451-1.23311 1.03451-.52965 0-.91034-.1821-1.2331-.59588l.45517-.38897c.15724.28138.42207.42207.75311.42207.31448 0 .53793-.19035.53793-.43862 0-.14069-.06621-.24828-.2069-.33104-.15426-.07485-.3149-.13579-.48-.18207-.65379-.20689-.87724-.43034-.87724-.86896 0-.5131.48-.90207 1.10896-.90207.39725 0 .75311.12414 1.05104.35586l-.36414.4138c-.14432-.15822-.3486-.24835-.56276-.24828-.29793 0-.5131.14897-.5131.34759 0 .16551.12414.25655.53793.39724.79448.24827 1.02621.48 1.02621.9931zm-3.41793-2.18482h.69517v3.15313h-.69517zm-2.23449 3.15313h-1.026204v-3.15313h1.026204c1.12552 0 1.90345.64551 1.90345 1.57241 0 .47173-.23172.91862-.63724 1.21655-.34759.24827-.73655.36417-1.27448.36417zm.81104-2.36693c-.23173-.18206-.49655-.24827-.95173-.24827h-.19034v2.08552h.19034c.4469 0 .72828-.08276.95173-.24828.24-.19862.38069-.49655.38069-.80276s-.14069-.59586-.38069-.78621z" fill="#000"/><path d="m12.4138 7.06891c-.9104 0-1.6552.72827-1.6552 1.63034 0 .96.7117 1.68005 1.6552 1.68005.9269 0 1.6552-.72832 1.6552-1.65522s-.72-1.65517-1.6552-1.65517z" fill="#f27712"/></svg>

<svg width="26" height="17" viewBox="0 0 26 17" fill="none" xmlns="http://www.w3.org/2000/svg">
<path d="M22.2099 16.9999L1.78792 16.9999C1.31814 17.0039 0.86623 16.8155 0.531348 16.4768C0.19481 16.1364 0.00391616 15.6723 8.49175e-06 15.1891L0 2.81301C0.00391616 2.32767 0.19481 1.86361 0.531348 1.52322C0.86623 1.18449 1.31813 0.996083 1.79006 1.00007L22.2121 1.00006C22.6819 0.996083 23.1338 1.18449 23.4686 1.52322C23.8052 1.86361 23.9961 2.32767 24 2.81091L24 15.1946C23.9939 15.6985 23.7907 16.1525 23.4661 16.4795C23.1431 16.8048 22.6998 17.0041 22.2099 16.9999Z" fill="white"/>
<path d="M22.2121 16.7499H22.2099H1.78792L1.7858 16.7499C1.38475 16.7533 0.997382 16.5926 0.709129 16.301C0.419307 16.0079 0.253646 15.6068 0.250008 15.188C0.250006 15.1877 0.250003 15.1874 0.25 15.1871L0.25 2.81406C0.253647 2.39301 0.41941 1.99202 0.709129 1.69898C0.997266 1.40754 1.38459 1.24665 1.78794 1.25006V1.25007H1.79006L22.2121 1.25007L22.2142 1.25005C22.6152 1.24666 23.0026 1.40742 23.2909 1.69898C23.5807 1.99214 23.7464 2.3932 23.75 2.81202C23.75 2.81232 23.75 2.81262 23.75 2.81293L23.75 15.1931C23.7443 15.63 23.5682 16.0218 23.2887 16.3033C23.0104 16.5836 22.6309 16.7535 22.2121 16.7499Z" stroke="black" stroke-opacity="0.2" stroke-width="0.5"/>
<path opacity="0.5" d="M12.6124 16.9999H21.9973C22.5 17 23 16.95 23.45 16.5C23.95 16 24 15.5 24 15.0303C24 14.5605 24 12.6716 24 12.6716C20.4562 14.7059 16.6128 16.1668 12.6124 16.9999Z" fill="#F27712"/>
<path d="M23.1724 10.2965H22.32L21.36 9.03029H21.269V10.2965H20.5738V7.15167H21.6C22.4027 7.15167 22.8662 7.4827 22.8662 8.07856C22.8662 8.56684 22.5765 8.88132 22.0552 8.98063L23.1724 10.2965ZM22.1462 8.10339C22.1462 7.79718 21.9145 7.63994 21.4841 7.63994H21.269V8.59167H21.4676C21.9145 8.59167 22.1462 8.42615 22.1462 8.10339ZM18.1407 7.15167H20.1103V7.68132H18.8358V8.38477H20.0607V8.9227H18.8358V9.77512H20.1103V10.3048H18.1407V7.15167ZM15.9062 10.3793L14.4 7.14339H15.1614L16.1131 9.26201L17.0731 7.14339H17.8179L16.2952 10.3793H15.9227H15.9062ZM9.60826 10.371C8.54895 10.371 7.72137 9.65098 7.72137 8.71581C7.72137 7.80546 8.56551 7.06891 9.62482 7.06891C9.92275 7.06891 10.171 7.12684 10.4772 7.25925V7.98753C10.2453 7.75971 9.93334 7.63194 9.60826 7.63167C8.9462 7.63167 8.44137 8.11167 8.44137 8.71581C8.44137 9.35305 8.93792 9.80822 9.64137 9.80822C9.95585 9.80822 10.1959 9.70891 10.4772 9.46063V10.1889C10.1627 10.3213 9.89792 10.371 9.60826 10.371ZM7.5062 9.33649C7.5062 9.94891 7.00137 10.371 6.27309 10.371C5.74344 10.371 5.36275 10.1889 5.03999 9.77512L5.49516 9.38615C5.6524 9.66753 5.91723 9.80822 6.24827 9.80822C6.56275 9.80822 6.7862 9.61787 6.7862 9.3696C6.7862 9.22891 6.71999 9.12132 6.5793 9.03856C6.42504 8.96371 6.2644 8.90277 6.0993 8.85649C5.44551 8.6496 5.22206 8.42615 5.22206 7.98753C5.22206 7.47443 5.70206 7.08546 6.33102 7.08546C6.72827 7.08546 7.08413 7.2096 7.38206 7.44132L7.01792 7.85512C6.8736 7.6969 6.66932 7.60677 6.45516 7.60684C6.15723 7.60684 5.94206 7.75581 5.94206 7.95443C5.94206 8.11994 6.0662 8.21098 6.47999 8.35167C7.27447 8.59994 7.5062 8.83167 7.5062 9.34477V9.33649ZM4.08827 7.15167H4.78344V10.3048H4.08827V7.15167ZM1.85378 10.3048H0.827576V7.15167H1.85378C2.9793 7.15167 3.75723 7.79718 3.75723 8.72408C3.75723 9.19581 3.52551 9.6427 3.11999 9.94063C2.7724 10.1889 2.38344 10.3048 1.84551 10.3048H1.85378ZM2.66482 7.93787C2.43309 7.75581 2.16827 7.6896 1.71309 7.6896H1.52275V9.77512H1.71309C2.15999 9.77512 2.44137 9.69236 2.66482 9.52684C2.90482 9.32822 3.04551 9.03029 3.04551 8.72408C3.04551 8.41787 2.90482 8.12822 2.66482 7.93787Z" fill="black"/>
<path d="M12.4138 7.06891C11.5034 7.06891 10.7586 7.79718 10.7586 8.69925C10.7586 9.65925 11.4703 10.3793 12.4138 10.3793C13.3407 10.3793 14.069 9.65098 14.069 8.72408C14.069 7.79718 13.349 7.06891 12.4138 7.06891Z" fill="#F27712"/>
</svg>
